X: 3
T: Denis Murphy's
R: slide
M: 12/8
L: 1/8
K: Dmaj
|: A | d2 f>d g>ef>d | B2 e>d c>Bc<A | d2 f>d g>ef>d | B>e d/c/B/A/ d2 dA |d2 f>d g>ef>d | B2 e>d c>Bc<A | d2 f>d g>ef>d | B>e d/c/B/A/ d2 d |||: B | A>DF<D F<AA>f | g>ef>d e>dB<d | A>DF<D F<AA>f | a>fe<f d2 dB |A>DF<D F<AA>f | g>ef>d e>dB<d | A>DF<D F<AA>f | a>fe<f d2 d ||


Tune 159	Setting 24618

